X:1
T:Benin, 76.76 D
T:Benin, 76.76 D
T:W. S. Foote, 1866
T:Public Domain Courtesy of the Cyber Hymnal™
C:W. S. Foote, 1866
Z:Public Domain
Z:Courtesy of the Cyber Hymnal™
%%score ( 1 2 ) ( 3 4 )
L:1/8
Q:1/4=105
M:6/8
K:G
V:1 treble 
V:2 treble 
V:3 bass 
V:4 bass 
V:1
 G | [GB]2 [GB] [Gc]2 [Gc] | (d3 e) z [Ge] | [Gd]2 [GB] [GB]2 G | [FA]2 z3 G | %5
 [GB]2 [GB] [Gc]2 [Gc] | [Gd]3 !fermata![Ge] z [Ge] | [Gd]2 [GB] [FB]2 [FA] | G2 z3 [Gd] | %9
 [^Ge]2 [Gd] [Ac]2 [Ac] | d2 c [GB]2 [GB] | [Fc]2 [Fc] (cB)[Gc] | !fermata![Gd]3 z2 [Fc] | %13
 [GB]2 [GB] [Fc]2 [Fc] | [Gd]3 [Ge] z [Ge] | [Gd]2 [GB] [FB]2 [FA] | G4 z |] %17
V:2
 G | x6 | G4 x2 | x5 G | x6 | x6 | x6 | x6 | G2 x4 | x6 | F3 x3 | x3 G2 x | x6 | x6 | x6 | x6 | %16
 G4 x |] %17
V:3
 [G,B,] | [G,D]2 [G,D] [G,E]2 [G,E] | (B,3 C) z [G,C] | [G,B,]2 [G,B,] [E,B,]2 [E,^C] | %4
 [D,D]2 z3 [G,B,] | [G,D]2 [G,D] [G,E]2 [G,E] | [G,B,]3 !fermata![C,C] z [C,C] | %7
 [D,B,]2 [D,D] [D,D]2 [D,C] | [G,B,]2 z3 [F,B,] | [E,B,]2 [E,B,] [A,C]2 [A,C] | %10
 [D,A,]2 [D,D] [G,D]2 [G,D] | [A,E]2 [A,E] [A,E]2 A, | !fermata![D,A,]3 z2 [D,D] | %13
 [G,D]2 [G,D] [A,D]2 [A,D] | [B,D]3 C z [C,C] | [D,B,]2 [D,D] [D,D]2 [D,C] | [G,B,]4 z |] %17
V:4
 x | x6 | G,4 x2 | x6 | x6 | x6 | x6 | x6 | x6 | x6 | x6 | x5 A, | x6 | x6 | x3 C x2 | x6 | x5 |] %17

